!!!OTL: WO WARST DU DEN GEWESEN
!!!ARE: Europa, Mitteleuropa, Deutschland, Rheinland, Oberdiebach
!!!SCT: K2444
!!!YEM: Copyright 1995, estate of Helmut Schaffrath.
**kern
*ICvox
*Ivox
*M3/4
*k[f#]
*G:
{4d
=1
8g
8g
4g
4b
=2
4dd
4b}
{4cc
=3
2b
4a
=4
2g}
{8b
8b
=5
4dd
4b
8b
8b
=6
4cc
4a}
{4a
=7
4b
4g
4g
=8
4ee
4dd}
{8b
8b
=9
4dd
4b
8b
8b
=10
4cc
4a}
{4a
=11
4b
4f#
4f#
=12
2g}
==
!!!AGN: Kinder - Lied, Tanz -, Lauf - Spiel
!!!ONB: ESAC (Essen Associative Code) Database: KINDER
!!!AMT: simple triple
!!!AIN: vox
!!!EED: Helmut Schaffrath
!!!EEV: 1.0
*-
